layout/main/dist/assets/main/img/modal/svg/03.svg

<svg width="55" height="77" viewBox="0 0 55 77" fill="none" xmlns="http://www.w3.org/2000/svg">
<path d="M55 14.993H0L5.15625 70.2487L27.4969 76.5103L49.8376 70.2487L55 14.993Z" fill="#E6A329"/>
<path d="M27.4971 19.4948V71.8279L45.5981 66.7598L50.0019 19.4948H27.4971Z" fill="#F1BF22"/>
<path d="M41.8969 26.2737H14.0656L12.127 46.962L12.1672 46.8335H35.8116L35.0405 55.5863L27.4966 57.7316L19.8412 55.5526L19.3829 50.255H12.4335L13.4245 60.841L27.4966 64.7889L41.5749 60.841L43.5135 40.0639H18.4197L18.7418 33.1412H36.1523L36.4124 37.1075H43.4237L41.8969 26.2737Z" fill="white"/>
<path d="M27.5028 26.2737H14.0656L12.127 46.962L12.1672 46.8335H27.5028V40.0853H19.3983L19.7204 33.1626H27.5028V26.2737ZM19.3983 50.2551H12.4335L13.4245 60.8349L27.4966 64.7767V57.7378L19.8412 55.5526L19.3983 50.2551Z" fill="#EBEBEB"/>
<path d="M22.149 6.84308H17.2529V10.3167H25.6516V0H22.149V6.84308ZM37.7448 0.0550874H29.2099V3.66638C30.3495 4.79261 30.9441 5.3343 32.6226 6.9655H29.2099V10.2585H37.7448V6.97162L34.332 3.6725H37.7448V0.0550874Z" fill="white"/>
</svg>

<svg width="55" height="77" viewBox="0 0 55 77" fill="none" xmlns="http://www.w3.org/2000/svg"><path d="M55 14.993H0l5.156 55.256 22.34 6.261 22.342-6.261L55 14.993z" fill="#E6A329"/><path d="M27.497 19.495v52.333l18.101-5.068 4.404-47.265H27.497z" fill="#F1BF22"/><path d="M41.897 26.274H14.066l-1.939 20.688.04-.129h23.645l-.771 8.753-7.544 2.146-7.656-2.18-.458-5.297h-6.95l.992 10.586 14.072 3.948 14.078-3.948 1.938-20.777H18.42l.322-6.923h17.41l.26 3.967h7.012l-1.527-10.834z" fill="#fff"/><path d="M27.503 26.274H14.066l-1.939 20.688.04-.129h15.336v-6.748h-8.105l.322-6.922h7.783v-6.89zm-8.105 23.981h-6.964l.99 10.58 14.073 3.942v-7.04l-7.656-2.184-.443-5.298z" fill="#EBEBEB"/><path d="M22.149 6.843h-4.896v3.474h8.399V0h-3.503v6.843zM37.745.055H29.21v3.611c1.14 1.127 1.734 1.668 3.413 3.3H29.21v3.292h8.535V6.973l-3.413-3.3h3.413V.055z" fill="#fff"/></svg>
